X: 1
T: Gardybylatten
M: 4/4
L: 1/8
R: hornpipe
K: Dmaj
|:FG|ABAF ABAF|A2fe d2c2|BdBG BdBG
|B2gf  e2d2|c3d c2B2|A2g2 f2e2|1dcde f
efg|a2a2 a2:|2d2fd cdec||d2f2 d2fg
|:a4 fdfa|b2a2 g2f2|g3f e2f2|g2f2
e2d2|c3d c2B2|A2g2 f2e2|1dcde fefg
|a2a2a2fg:|2d2fd cdec|d2f2 d2||
